vendor/craftcms/cms/src/icons/solid/tombstone.svg

<svg xmlns="http://www.w3.org/2000/svg" viewBox="0 0 448 512"><!--! Font Awesome Pro 6.7.2 by @fontawesome - https://fontawesome.com License - https://fontawesome.com/license (Commercial License) Copyright 2024 Fonticons, Inc. --><path d="M32 192C32 86 118 0 224 0S416 86 416 192l0 224L32 416l0-224zM0 480c0-17.7 14.3-32 32-32l384 0c17.7 0 32 14.3 32 32s-14.3 32-32 32L32 512c-17.7 0-32-14.3-32-32zM248 120c0-13.3-10.7-24-24-24s-24 10.7-24 24l0 40-48 0c-13.3 0-24 10.7-24 24s10.7 24 24 24l48 0 0 120c0 13.3 10.7 24 24 24s24-10.7 24-24l0-120 48 0c13.3 0 24-10.7 24-24s-10.7-24-24-24l-48 0 0-40z"/></svg>

<svg xmlns="http://www.w3.org/2000/svg" viewBox="0 0 448 512"><!--! Font Awesome Pro 6.5.1 by @fontawesome - https://fontawesome.com License - https://fontawesome.com/license (Commercial License) Copyright 2023 Fonticons, Inc. --><path d="M32 192C32 86 118 0 224 0S416 86 416 192V416H32V192zM0 480c0-17.7 14.3-32 32-32H416c17.7 0 32 14.3 32 32s-14.3 32-32 32H32c-17.7 0-32-14.3-32-32zM248 120c0-13.3-10.7-24-24-24s-24 10.7-24 24v40H152c-13.3 0-24 10.7-24 24s10.7 24 24 24h48V328c0 13.3 10.7 24 24 24s24-10.7 24-24V208h48c13.3 0 24-10.7 24-24s-10.7-24-24-24H248V120z"/></svg>
